assets/images/img_nav_20x20.svg

<svg width="20" height="20" viewBox="0 0 20 20" fill="none" xmlns="http://www.w3.org/2000/svg">
<path fill-rule="evenodd" clip-rule="evenodd" d="M14.2178 10.129L17.4634 13.3746C17.6817 13.6244 17.7577 13.9683 17.6652 14.2869L17.0687 16.3658C16.9768 16.6804 16.7329 16.9276 16.4196 17.0237L14.288 17.6641C13.9483 17.7562 13.5851 17.6629 13.3318 17.4184L10.0775 14.1641C9.63516 13.7221 9.03604 13.473 8.41079 13.4711C8.10982 13.4724 7.81195 13.532 7.5336 13.6465C7.25418 13.7564 6.95665 13.8129 6.65641 13.8132C6.03039 13.8151 5.42984 13.5654 4.98974 13.1202L2.35816 10.4886C1.76035 9.8929 1.52622 9.02326 1.74413 8.20792L2.77044 4.40968C2.97901 3.5855 3.6163 2.93815 4.43711 2.71669L8.27044 1.74301C8.47097 1.6909 8.67729 1.66437 8.88448 1.66406C9.50973 1.66601 10.1088 1.91511 10.5511 2.35704L13.1827 4.98862C13.8569 5.66303 14.0609 6.67601 13.7003 7.5588C13.3396 8.44159 13.5436 9.45457 14.2178 10.129ZM14.1476 16.3746L15.902 15.857L16.3845 14.1377L13.288 11.0413C12.2342 9.99379 11.9187 8.41297 12.4897 7.04126C12.6404 6.646 12.5442 6.19907 12.2441 5.9009L9.61255 3.26933C9.41901 3.0709 9.15289 2.96001 8.87571 2.96231C8.78556 2.94898 8.69393 2.94898 8.60378 2.96231L4.77922 3.98862C4.41981 4.08531 4.13907 4.36605 4.04238 4.72547L3.01606 8.58512C2.9198 8.94581 3.02349 9.33045 3.28799 9.59389L5.91957 12.2255C6.11311 12.4239 6.37923 12.5348 6.65641 12.5325C6.79098 12.5312 6.92439 12.5075 7.05115 12.4623C7.48449 12.281 7.94983 12.1885 8.41957 12.1904C9.40659 12.1793 10.356 12.5686 11.0511 13.2693L14.1476 16.3746Z" fill="#B0B3BC"/>
<path d="M8.57746 5.80441L5.85817 8.52371C5.60163 8.78057 5.60163 9.19668 5.85817 9.45354C6.11502 9.71007 6.53113 9.71007 6.78799 9.45354L9.50729 6.73424C9.63268 6.61206 9.7034 6.4444 9.7034 6.26933C9.7034 6.09425 9.63268 5.9266 9.50729 5.80441C9.25043 5.54788 8.83432 5.54788 8.57746 5.80441Z" fill="#B0B3BC"/>
</svg>

<svg xmlns="http://www.w3.org/2000/svg" width="20" height="20" fill="none" viewBox="0 0 20 20"><path fill="#B0B3BC" fill-rule="evenodd" d="m14.218 10.129 3.245 3.246a.97.97 0 0 1 .202.912l-.596 2.079a.974.974 0 0 1-.65.658l-2.131.64a1 1 0 0 1-.956-.246l-3.255-3.254a2.368 2.368 0 0 0-1.666-.693 2.333 2.333 0 0 0-.877.175c-.28.11-.577.167-.878.167a2.334 2.334 0 0 1-1.666-.693l-2.632-2.63a2.36 2.36 0 0 1-.614-2.281L2.77 4.41a2.35 2.35 0 0 1 1.667-1.693l3.833-.974a2.368 2.368 0 0 1 2.28.614l2.633 2.632c.674.674.878 1.687.517 2.57a2.368 2.368 0 0 0 .518 2.57Zm-.07 6.246 1.754-.518.482-1.72-3.096-3.096a3.658 3.658 0 0 1-.798-4 1.07 1.07 0 0 0-.246-1.14L9.613 3.269a1.018 1.018 0 0 0-.737-.307.93.93 0 0 0-.272 0L4.779 3.99c-.36.096-.64.377-.737.736l-1.026 3.86c-.096.36.007.745.272 1.009l2.632 2.632c.193.198.46.309.736.306a1.21 1.21 0 0 0 .395-.07 3.509 3.509 0 0 1 1.369-.272 3.649 3.649 0 0 1 2.631 1.08l3.097 3.105Z" clip-rule="evenodd"/><path fill="#B0B3BC" d="m8.577 5.804-2.719 2.72a.658.658 0 0 0 .93.93l2.72-2.72a.65.65 0 0 0 0-.93.658.658 0 0 0-.93 0Z"/></svg>
